public/img/icons/light.svg

<svg width="64" height="64" viewBox="0 0 64 64" fill="none" xmlns="http://www.w3.org/2000/svg">
<path d="M58.8375 2.5L46.025 6.22625L51.2125 2.715C47.9375 3.455 43.8 4.9025 38.6 7.23875L30.1125 16.0875L33.125 9.90625C30.2125 11.5262 27.125 13.65 24.15 16.1375L22.175 24.175L21.75 18.225C18.8125 20.925 16.05 23.925 13.7625 27.0875C11.3588 30.4 9.48002 33.9 8.53877 37.3875L5.02377 35.0375C5.33877 38 6.31252 40.575 7.91002 42.9375L3.70752 41.65C4.66252 44.5875 6.22377 46.4875 8.86377 48.025C7.38502 52.1875 6.69127 56.5375 5.94627 60.875L8.24627 61.2625C10.9138 34.675 29.7375 17.725 46.75 10.215L47.6125 12.3875C32.4 19.2 20.575 30.7 14.3875 47.275C16.65 47.2875 18.8625 47.0125 20.9125 46.4875L21.525 38.875L23.1625 45.8125C24.525 45.3125 25.775 44.7125 26.8875 44.0125L24.3 38.575L28.4 42.925C29.4 42.125 30.225 41.225 30.85 40.2375C34.65 34.3 38.625 28.4 46.45 23.4625L40.7375 21.4375L49.5 21.7C50.925 20.975 52.425 20.0875 53.5625 19.25L47.35 18.75L56.6875 16.55C57.4125 15.825 58.0875 15.0625 58.7 14.3C60.8625 11.5575 62.325 8.7025 61.975 6.10625C61.8125 4.8075 61.0375 3.58625 59.775 2.9025C59.4625 2.74 59.125 2.59625 58.8375 2.5Z" fill="white"/>
</svg>

<svg xmlns="http://www.w3.org/2000/svg" width="64" height="64" fill="none" viewBox="0 0 64 64"><path fill="#fff" d="M58.838 2.5 46.024 6.226l5.188-3.511c-3.276.74-7.413 2.188-12.613 4.524l-8.487 8.848 3.012-6.18c-2.913 1.62-6 3.743-8.975 6.23l-1.975 8.038-.425-5.95c-2.937 2.7-5.7 5.7-7.988 8.862C11.36 30.4 9.48 33.9 8.54 37.388l-3.515-2.35a17 17 0 0 0 2.886 7.9L3.708 41.65c.955 2.938 2.516 4.837 5.156 6.375-1.479 4.163-2.173 8.513-2.918 12.85l2.3.388c2.668-26.588 21.492-43.538 38.504-51.048l.862 2.172C32.4 19.2 20.575 30.7 14.389 47.275a26 26 0 0 0 6.525-.788l.612-7.612 1.638 6.938c1.362-.5 2.612-1.1 3.724-1.8L24.3 38.575l4.1 4.35c1-.8 1.825-1.7 2.45-2.687 3.8-5.938 7.775-11.838 15.6-16.775l-5.713-2.026 8.763.263c1.425-.725 2.925-1.613 4.063-2.45l-6.213-.5 9.337-2.2A28 28 0 0 0 58.7 14.3c2.162-2.743 3.625-5.597 3.275-8.194a4.25 4.25 0 0 0-2.2-3.203 7 7 0 0 0-.937-.403"/></svg>
